assets/Rabbit face/Flat/rabbit_face_flat.svg

<svg width="32" height="32" viewBox="0 0 32 32" fill="none" xmlns="http://www.w3.org/2000/svg">
<path d="M27.4502 21.89C27.4502 21.44 27.4102 20.99 27.3302 20.56C27.0702 18.83 26.2802 15.74 23.8402 13.24C23.2902 12.67 22.7102 12.2 22.1202 11.81L23.3402 5.2C23.6402 3.54 22.3602 2 20.6702 2C19.1702 2 17.9602 3.21 17.9602 4.71V10.11C16.6402 9.85 15.7302 9.89 15.7302 9.89C15.7302 9.89 15.0302 9.85 13.9702 10.02V4.71C13.9702 3.21 12.7602 2 11.2602 2C9.56024 2 8.28023 3.54 8.59023 5.2L9.76023 11.54C9.03023 11.98 8.30023 12.54 7.61023 13.24C5.18023 15.74 4.38023 18.82 4.12023 20.56C4.04023 21 4.00023 21.44 3.99023 21.9C3.99023 21.91 3.99023 21.92 3.99023 21.92C3.99023 24.8 5.66023 27.28 8.07023 28.47C8.07023 28.47 10.6902 30 15.7102 30C20.7402 30 23.3502 28.47 23.3502 28.47C25.7702 27.28 27.4302 24.8 27.4302 21.92C27.4502 21.92 27.4502 21.91 27.4502 21.89Z" fill="#CDC4D6"/>
<path d="M11.1298 10.78C11.1898 11.1 11.4598 11.33 11.7898 11.33C12.1698 11.33 12.4698 11.02 12.4698 10.66V4.74C12.4698 4.07 11.9098 3.5 11.2398 3.5C10.7498 3.5 10.4498 3.77 10.3098 3.93C10.1798 4.09 9.95984 4.44 10.0498 4.93L11.1298 10.78Z" fill="#FF8687"/>
<path d="M19.4498 4.74V10.65C19.4498 11.02 19.7498 11.33 20.1298 11.33C20.4498 11.33 20.7298 11.1 20.7898 10.78L21.8698 4.94C21.9598 4.45 21.7498 4.1 21.6098 3.94C21.4698 3.78 21.1698 3.5 20.6798 3.5C19.9998 3.5 19.4498 4.07 19.4498 4.74Z" fill="#FF8687"/>
<path d="M2.50013 21C2.22399 21 2.00013 21.2239 2.00013 21.5C2.00013 21.7761 2.22399 22 2.50013 22H9.50013C9.77627 22 10.0001 21.7761 10.0001 21.5C10.0001 21.2239 9.77627 21 9.50013 21H2.50013Z" fill="#B4ACBC"/>
<path d="M9.63749 23.9808C9.90301 23.9049 10.0568 23.6282 9.98089 23.3626C9.90503 23.0971 9.62829 22.9434 9.36277 23.0192L2.36277 25.0192C2.09725 25.0951 1.9435 25.3718 2.01937 25.6374C2.09523 25.9029 2.37197 26.0566 2.63749 25.9808L9.63749 23.9808Z" fill="#B4ACBC"/>
<path d="M22.0001 21.5C22.0001 21.2239 22.224 21 22.5001 21H29.5001C29.7763 21 30.0001 21.2239 30.0001 21.5C30.0001 21.7761 29.7763 22 29.5001 22H22.5001C22.224 22 22.0001 21.7761 22.0001 21.5Z" fill="#B4ACBC"/>
<path d="M22.6375 23.0192C22.372 22.9434 22.0952 23.0971 22.0194 23.3626C21.9435 23.6282 22.0973 23.9049 22.3628 23.9808L29.3628 25.9808C29.6283 26.0566 29.905 25.9029 29.9809 25.6374C30.0568 25.3718 29.903 25.0951 29.6375 25.0192L22.6375 23.0192Z" fill="#B4ACBC"/>
<path d="M15.9597 24.67L14.5997 25.41C14.5197 25.45 14.4697 25.54 14.4697 25.63V26.41C14.4697 26.65 14.6697 26.85 14.9097 26.85H17.0297C17.2697 26.85 17.4697 26.65 17.4697 26.41V25.63C17.4697 25.54 17.4197 25.45 17.3397 25.41L15.9597 24.67Z" fill="#F4F4F4"/>
<path d="M15.5198 22.81L14.5798 22.04C14.4298 21.91 14.3398 21.73 14.3398 21.53C14.3398 21.17 14.6398 20.87 14.9998 20.87H16.9198C17.2798 20.87 17.5798 21.17 17.5798 21.53C17.5798 21.73 17.4898 21.91 17.3398 22.04L16.3998 22.81C16.1398 23.02 15.7698 23.02 15.5198 22.81Z" fill="#CA0B4A"/>
<path d="M11 17.9687C11 17.4165 11.4477 16.9688 12 16.9688C12.5523 16.9688 13 17.4165 13 17.9688V18.9688C13 19.521 12.5523 19.9688 12 19.9688C11.4477 19.9688 11 19.521 11 18.9688V17.9687Z" fill="#1C1C1C"/>
<path d="M19 17.9687C19 17.4165 19.4477 16.9688 20 16.9688C20.5523 16.9688 21 17.4165 21 17.9688V18.9688C21 19.521 20.5523 19.9688 20 19.9688C19.4477 19.9688 19 19.521 19 18.9688V17.9687Z" fill="#1C1C1C"/>
<path d="M12.48 23.02C12.7561 23.02 12.98 23.2439 12.98 23.52C12.98 24.2039 13.5361 24.76 14.22 24.76C14.9038 24.76 15.46 24.2039 15.46 23.52C15.46 23.2439 15.6838 23.02 15.96 23.02L15.965 23.02L15.97 23.02C16.2461 23.02 16.47 23.2439 16.47 23.52C16.47 24.2039 17.0261 24.76 17.71 24.76C18.3938 24.76 18.95 24.2039 18.95 23.52C18.95 23.2439 19.1738 23.02 19.45 23.02C19.7261 23.02 19.95 23.2439 19.95 23.52C19.95 24.7562 18.9461 25.76 17.71 25.76C17.0051 25.76 16.3757 25.4336 15.965 24.9238C15.5542 25.4336 14.9249 25.76 14.22 25.76C12.9838 25.76 11.98 24.7562 11.98 23.52C11.98 23.2439 12.2038 23.02 12.48 23.02Z" fill="#1C1C1C"/>
</svg>

<svg xmlns="http://www.w3.org/2000/svg" width="32" height="32" fill="none"><path fill="#CDC4D6" d="M27.45 21.89c0-.45-.04-.9-.12-1.33-.26-1.73-1.05-4.82-3.49-7.32-.55-.57-1.13-1.04-1.72-1.43l1.22-6.61c.3-1.66-.98-3.2-2.67-3.2-1.5 0-2.71 1.21-2.71 2.71v5.4c-1.32-.26-2.23-.22-2.23-.22s-.7-.04-1.76.13V4.71c0-1.5-1.21-2.71-2.71-2.71-1.7 0-2.98 1.54-2.67 3.2l1.17 6.34c-.73.44-1.46 1-2.15 1.7-2.43 2.5-3.23 5.58-3.49 7.32-.08.44-.12.88-.13 1.34v.02c0 2.88 1.67 5.36 4.08 6.55 0 0 2.62 1.53 7.64 1.53 5.03 0 7.64-1.53 7.64-1.53a7.285 7.285 0 0 0 4.08-6.55c.02 0 .02-.01.02-.03Z"/><path fill="#FF8687" d="M11.13 10.78c.06.32.33.55.66.55.38 0 .68-.31.68-.67V4.74c0-.67-.56-1.24-1.23-1.24-.49 0-.79.27-.93.43-.13.16-.35.51-.26 1l1.08 5.85ZM19.45 4.74v5.91c0 .37.3.68.68.68.32 0 .6-.23.66-.55l1.08-5.84c.09-.49-.12-.84-.26-1-.14-.16-.44-.44-.93-.44-.68 0-1.23.57-1.23 1.24Z"/><path fill="#B4ACBC" d="M2.5 21a.5.5 0 0 0 0 1h7a.5.5 0 0 0 0-1h-7ZM9.637 23.98a.5.5 0 0 0-.274-.96l-7 2a.5.5 0 0 0 .274.96l7-2ZM22 21.5a.5.5 0 0 1 .5-.5h7a.5.5 0 1 1 0 1h-7a.5.5 0 0 1-.5-.5ZM22.637 23.02a.5.5 0 0 0-.274.96l7 2a.5.5 0 0 0 .274-.96l-7-2Z"/><path fill="#F4F4F4" d="m15.96 24.67-1.36.74c-.08.04-.13.13-.13.22v.78c0 .24.2.44.44.44h2.12c.24 0 .44-.2.44-.44v-.78c0-.09-.05-.18-.13-.22l-1.38-.74Z"/><path fill="#CA0B4A" d="m15.52 22.81-.94-.77a.67.67 0 0 1-.24-.51c0-.36.3-.66.66-.66h1.92c.36 0 .66.3.66.66 0 .2-.09.38-.24.51l-.94.77c-.26.21-.63.21-.88 0Z"/><path fill="#1C1C1C" d="M11 17.969a1 1 0 0 1 2 0v1a1 1 0 0 1-2 0v-1ZM19 17.969a1 1 0 0 1 2 0v1a1 1 0 0 1-2 0v-1ZM12.48 23.02a.5.5 0 0 1 .5.5 1.241 1.241 0 0 0 2.48 0 .5.5 0 0 1 .5-.5h.01a.5.5 0 0 1 .5.5 1.241 1.241 0 0 0 2.48 0 .5.5 0 1 1 1 0 2.241 2.241 0 0 1-3.985 1.404 2.241 2.241 0 0 1-3.985-1.404.5.5 0 0 1 .5-.5Z"/></svg>
